X: 5655
T: Buxton Flyer, The
R: jig
M: 6/8
K: Amajor
e/d/|"A"cBA "A7"Ace|"D"def "E7"efg|"A"aga "F#m"ecA|"Bm7"fec "E7"Bed|
"A"cBA "A7"Ace|"D"def "A/C#"efg|"F#m"aec "E7"BAB|"A"cAA A2||
c/e/|"F#m"fef "D"aga|"A/C#"fec "A/A"ece|"F#m"fef "D"aga|"A/C#"fec "E7"Bce|
"F#m"fef "D"aga|"A"fec "E7/G#"efg|"F#m"aec "E7"BAB|"A"cAA A2||

